src/assets/discount.svg

<?xml version="1.0" encoding="UTF-8"?>
<svg version="1.1" viewBox="0 0 400 400" xmlns="http://www.w3.org/2000/svg">
<path d="m17.188 1.729c-6.044 2.317-13.223 9.593-15.513 15.721l-1.703 4.559 0.209 80.597 0.21 80.597 1.861 3.516c8.159 15.406 11.686 16.406 57.856 16.406h34.78l-23.926 24.023c-28.636 28.752-28.384 28.386-28.384 41.211 0 13.542-3.72 9.011 58.837 71.661 63.005 63.1 58.739 59.589 72.413 59.589 13.319 0 10.611 2.103 57.698-44.802 24.404-24.31 40.961-41.396 41.645-42.974 2.41-5.557-1.286-11.052-7.433-11.052h-3.579l-40.65 40.535c-43.062 42.941-42.463 42.408-47.681 42.408-5.257 0-4.157 1.001-58.87-53.536-57.738-57.553-56.364-56.047-56.364-61.772 0-5.668-6.912 1.605 103.81-109.24l101.26-101.37 51.637 1e-3c62.752 0 58.167-1.172 45.363 11.595-8.423 8.399-8.91 8.753-10.965 7.972-26.589-10.109-43.787 30.932-18.299 43.668 18.707 9.348 40.673-9.439 33.401-28.566-1.016-2.674 15.784-20.564 17.767-18.918 0.82 0.681 1.02 11.102 1.02 53.287v52.44l-76.172 76.184v3.576c0 6.341 6.277 10.027 11.953 7.018 1.16-0.615 19.775-18.816 41.367-40.448l39.258-39.329v-59.179-59.179l-3.208-3.48-3.207-3.48 3.207-3.644c8.988-10.21-1.724-20.923-11.935-11.935l-3.644 3.208-3.48-3.208c-3.407-3.141-3.597-3.207-9.142-3.207h-5.663l-42.29-42.188-149.58 0.041-149.58 0.04-4.296 1.648m308.98 27.177 13.264 13.282h-41.773l-41.773-1e-3 -45.914 45.89c-45.202 45.179-45.913 45.845-45.913 42.998-1e-3 -15.215-17.378-26.481-32.26-20.913-23.003 8.607-18.75 42.948 5.678 45.841l4.067 0.481-30.205 30.235h-42.534c-47.906 0-46.689 0.143-50.84-5.986l-1.953-2.884v-76.229c0-84.929-0.374-78.927 5.174-83.062 3.666-2.733 5.728-2.772 149.52-2.853l142.2-0.08 13.264 13.281m-262.74 20.359c-14.097 7.044-17.139 26.667-5.88 37.925 9.154 9.154 25.776 8.796 34.392-0.741 17.652-19.538-4.919-48.973-28.512-37.184m61.315 1.712c-1.766 1.781-50.509 87.535-52.598 92.534-3.227 7.724 7.263 15.065 13.023 9.114 2.193-2.265 52.338-91.557 52.847-94.102 1.409-7.045-8.299-12.565-13.272-7.546m-46.508 13.148c0.868 0.465 2.08 2.047 2.694 3.516 3.016 7.219-6.131 13.2-11.689 7.643-5.887-5.887 1.567-15.134 8.995-11.159m268.99 30.832c4.507 4.507 1.347 12.074-5.041 12.074-4.399 0-7.033-2.632-7.033-7.031 0-6.488 7.498-9.619 12.074-5.043m-79.652 21.432c-2.396 1.02-18.959 18.101-19.838 20.459-1.709 4.585-0.459 6.173 24.343 30.925l23.679 23.633h3.843 3.842l9.551-9.57c11.481-11.505 12.747-14.755 7.709-19.794-3.937-3.937-8.201-2.827-15.164 3.95l-5.996 5.835-10.474-10.474 5.901-5.937c13.779-13.86 2.056-25.022-11.982-11.41l-5.69 5.517-5.041-4.996-5.04-4.996 5.842-6.004c5.475-5.626 5.842-6.219 5.826-9.414-0.032-6.315-5.634-10.14-11.311-7.724m-122.21 10.612c4.676 4.231 0.947 12.843-5.561 12.843-2.282 0-6.999-4.842-6.964-7.149 0.094-6.252 7.958-9.828 12.525-5.694m64.731 46.376c-1.891 1.891-2.283 2.93-2.283 6.041v3.757l24.037 24.037 24.037 24.038h3.826 3.825l10.092-9.961c13.349-13.174 14.724-16.316 9.448-21.592-4.283-4.282-7.951-3.158-16.199 4.965l-7.113 7.006-20.347-20.287c-23.039-22.972-23.854-23.472-29.323-18.004m-33.312 34.222c-2.669 0.486-5.69 4.583-5.69 7.716 0 3.059 29.471 61.875 32.549 64.958 6.853 6.867 16.629-2.415 12.033-11.424l-1.512-2.963 7.655-7.628 7.656-7.627 2.255 1.138c7.284 3.674 14.376 0.408 14.36-6.613-0.011-4.617-1.615-5.665-33.199-21.696-30.259-15.359-32.781-16.466-36.107-15.861m30.066 31.323 7.241 3.686-3.902 3.844c-2.147 2.115-4.046 3.69-4.221 3.501-0.978-1.054-7.449-14.79-6.952-14.757 0.326 0.022 3.852 1.698 7.834 3.726m-67.397 5.591c-3.159 1.343-16.692 15.941-18.484 19.94-10.255 22.877 17.125 43.248 37.255 27.718 4.97-3.834 8.213-4.12 11.46-1.009 4.283 4.104 3.344 7.091-4.858 15.455-10.866 11.081-10.799 19.555 0.155 19.555h3.879l7.986-8.203c9.584-9.845 10.896-12.267 11.294-20.853 0.993-21.367-21.854-32.026-39.62-18.483-5.171 3.943-9.757 3.42-12.247-1.397-1.938-3.746-0.843-5.898 7.144-14.041 6.539-6.666 7.364-7.822 7.364-10.314 0-6.834-5.455-10.864-11.328-8.368m145.64 33.552c-5.842 5.842-0.399 15.78 7.549 13.785 8.966-2.25 7.228-16.069-2.02-16.069-2.545 0-3.738 0.493-5.529 2.284" fill="#fdf6ff" fill-rule="evenodd"/>
</svg>

<svg id="svg" xmlns="http://www.w3.org/2000/svg" xmlns:xlink="http://www.w3.org/1999/xlink" width="400" height="400" viewBox="0, 0, 400,400" version="1.1"><g id="svgg"><path id="path0" d="M17.188 1.729 C 11.144 4.046,3.965 11.322,1.675 17.450 L -0.028 22.009 0.181 102.606 L 0.391 183.203 2.252 186.719 C 10.411 202.125,13.938 203.125,60.108 203.125 L 94.888 203.125 70.962 227.148 C 42.326 255.900,42.578 255.534,42.578 268.359 C 42.578 281.901,38.858 277.370,101.415 340.020 C 164.420 403.120,160.154 399.609,173.828 399.609 C 187.147 399.609,184.439 401.712,231.526 354.807 C 255.930 330.497,272.487 313.411,273.171 311.833 C 275.581 306.276,271.885 300.781,265.738 300.781 L 262.159 300.781 221.509 341.316 C 178.447 384.257,179.046 383.724,173.828 383.724 C 168.571 383.724,169.671 384.725,114.958 330.188 C 57.220 272.635,58.594 274.141,58.594 268.416 C 58.594 262.748,51.682 270.021,162.408 159.180 L 263.670 57.812 315.307 57.813 C 378.059 57.813,373.474 56.641,360.670 69.408 C 352.247 77.807,351.760 78.161,349.705 77.380 C 323.116 67.271,305.918 108.312,331.406 121.048 C 350.113 130.396,372.079 111.609,364.807 92.482 C 363.791 89.808,380.591 71.918,382.574 73.564 C 383.394 74.245,383.594 84.666,383.594 126.851 L 383.594 179.291 345.508 217.383 L 307.422 255.475 307.422 259.051 C 307.422 265.392,313.699 269.078,319.375 266.069 C 320.535 265.454,339.150 247.253,360.742 225.621 L 400.000 186.292 400.000 127.113 L 400.000 67.934 396.792 64.454 L 393.585 60.974 396.792 57.330 C 405.780 47.120,395.068 36.407,384.857 45.395 L 381.213 48.603 377.733 45.395 C 374.326 42.254,374.136 42.188,368.591 42.188 L 362.928 42.188 341.783 21.094 L 320.638 0.000 171.061 0.041 L 21.484 0.081 17.188 1.729 M326.172 28.906 L 339.436 42.188 297.663 42.188 L 255.890 42.187 209.976 88.077 C 164.774 133.256,164.063 133.922,164.063 131.075 C 164.062 115.860,146.685 104.594,131.803 110.162 C 108.800 118.769,113.053 153.110,137.481 156.003 L 141.548 156.484 126.445 171.602 L 111.343 186.719 68.809 186.719 C 20.903 186.719,22.120 186.862,17.969 180.733 L 16.016 177.849 16.016 101.620 C 16.016 16.691,15.642 22.693,21.190 18.558 C 24.856 15.825,26.918 15.786,170.712 15.705 L 312.908 15.625 326.172 28.906 M63.435 49.265 C 49.338 56.309,46.296 75.932,57.555 87.190 C 66.709 96.344,83.331 95.986,91.947 86.449 C 109.599 66.911,87.028 37.476,63.435 49.265 M124.750 50.977 C 122.984 52.758,74.241 138.512,72.152 143.511 C 68.925 151.235,79.415 158.576,85.175 152.625 C 87.368 150.360,137.513 61.068,138.022 58.523 C 139.431 51.478,129.723 45.958,124.750 50.977 M78.242 64.125 C 79.110 64.590,80.322 66.172,80.936 67.641 C 83.952 74.860,74.805 80.841,69.247 75.284 C 63.360 69.397,70.814 60.150,78.242 64.125 M347.230 94.957 C 351.737 99.464,348.577 107.031,342.189 107.031 C 337.790 107.031,335.156 104.399,335.156 100.000 C 335.156 93.512,342.654 90.381,347.230 94.957 M267.578 116.389 C 265.182 117.409,248.619 134.490,247.740 136.848 C 246.031 141.433,247.281 143.021,272.083 167.773 L 295.762 191.406 299.605 191.406 L 303.447 191.406 312.998 181.836 C 324.479 170.331,325.745 167.081,320.707 162.042 C 316.770 158.105,312.506 159.215,305.543 165.992 L 299.547 171.827 294.310 166.590 L 289.073 161.353 294.974 155.416 C 308.753 141.556,297.030 130.394,282.992 144.006 L 277.302 149.523 272.261 144.527 L 267.221 139.531 273.063 133.527 C 278.538 127.901,278.905 127.308,278.889 124.113 C 278.857 117.798,273.255 113.973,267.578 116.389 M145.365 127.001 C 150.041 131.232,146.312 139.844,139.804 139.844 C 137.522 139.844,132.805 135.002,132.840 132.695 C 132.934 126.443,140.798 122.867,145.365 127.001 M210.096 173.377 C 208.205 175.268,207.813 176.307,207.813 179.418 L 207.813 183.175 231.850 207.212 L 255.887 231.250 259.713 231.250 L 263.538 231.250 273.630 221.289 C 286.979 208.115,288.354 204.973,283.078 199.697 C 278.795 195.415,275.127 196.539,266.879 204.662 L 259.766 211.668 239.419 191.381 C 216.380 168.409,215.565 167.909,210.096 173.377 M176.784 207.599 C 174.115 208.085,171.094 212.182,171.094 215.315 C 171.094 218.374,200.565 277.190,203.643 280.273 C 210.496 287.140,220.272 277.858,215.676 268.849 L 214.164 265.886 221.819 258.258 L 229.475 250.631 231.730 251.769 C 239.014 255.443,246.106 252.177,246.090 245.156 C 246.079 240.539,244.475 239.491,212.891 223.460 C 182.632 208.101,180.110 206.994,176.784 207.599 M206.850 238.922 L 214.091 242.608 210.189 246.452 C 208.042 248.567,206.143 250.142,205.968 249.953 C 204.990 248.899,198.519 235.163,199.016 235.196 C 199.342 235.218,202.868 236.894,206.850 238.922 M139.453 244.513 C 136.294 245.856,122.761 260.454,120.969 264.453 C 110.714 287.330,138.094 307.701,158.224 292.171 C 163.194 288.337,166.437 288.051,169.684 291.162 C 173.967 295.266,173.028 298.253,164.826 306.617 C 153.960 317.698,154.027 326.172,164.981 326.172 L 168.860 326.172 176.846 317.969 C 186.430 308.124,187.742 305.702,188.140 297.116 C 189.133 275.749,166.286 265.090,148.520 278.633 C 143.349 282.576,138.763 282.053,136.273 277.236 C 134.335 273.490,135.430 271.338,143.417 263.195 C 149.956 256.529,150.781 255.373,150.781 252.881 C 150.781 246.047,145.326 242.017,139.453 244.513 M285.096 278.065 C 279.254 283.907,284.697 293.845,292.645 291.850 C 301.611 289.600,299.873 275.781,290.625 275.781 C 288.080 275.781,286.887 276.274,285.096 278.065 " stroke="none" fill="#fdf6ff" fill-rule="evenodd"></path></g></svg>
